assets/img/usageIcon5.svg

<svg width="20" height="20" viewBox="0 0 20 20" fill="none" xmlns="http://www.w3.org/2000/svg">
<path d="M9.9999 0.400391C4.6979 0.400391 0.399902 4.69839 0.399902 10.0004C0.399902 15.3024 4.6979 19.6004 9.9999 19.6004C15.3019 19.6004 19.5999 15.3024 19.5999 10.0004C19.5999 4.69839 15.3019 0.400391 9.9999 0.400391ZM12.6439 12.8304C10.6419 12.8304 9.9469 11.9204 9.5779 10.7874L9.2069 9.62139C8.9299 8.77039 8.7059 8.15439 7.6879 8.15439C6.9819 8.15439 6.0619 8.61739 6.0619 10.0524C6.0619 11.1714 6.8319 11.8724 7.6299 11.8724C8.3069 11.8724 8.7139 11.4914 8.9259 11.3004L9.2799 12.3124C9.0389 12.4864 8.5459 12.8294 7.5729 12.8294C6.2269 12.8294 4.9479 11.8724 4.9479 10.0994C4.9479 8.25539 6.2809 7.16939 7.6529 7.16939C9.1929 7.16939 9.7659 7.72939 10.2529 9.24739L10.6349 10.4134C10.9129 11.2654 11.4999 11.8844 12.6689 11.8844C13.4559 11.8844 13.8729 11.7084 13.8729 11.2774C13.8729 10.9394 13.6759 10.6934 13.0859 10.5544L12.2989 10.3664C11.3379 10.1344 10.9559 9.63239 10.9559 8.83739C10.9559 7.56639 11.9739 7.16939 13.0169 7.16939C14.1979 7.16939 14.9149 7.60139 15.0069 8.65139L13.8499 8.79039C13.8039 8.29039 13.5029 8.07939 12.9469 8.07939C12.4379 8.07939 12.1259 8.31339 12.1259 8.71039C12.1259 9.06039 12.2759 9.26939 12.7859 9.38639L13.5259 9.55039C14.5209 9.78339 15.0539 10.2734 15.0539 11.2184C15.0529 12.3874 14.0799 12.8304 12.6439 12.8304V12.8304Z" fill="#65CB88"/>
</svg>

<svg width="20" height="20" fill="none" xmlns="http://www.w3.org/2000/svg"><path d="M10 .4A9.6 9.6 0 0 0 .4 10a9.6 9.6 0 0 0 9.6 9.6 9.6 9.6 0 0 0 9.6-9.6A9.6 9.6 0 0 0 10 .4Zm2.644 12.43c-2.002 0-2.697-.91-3.066-2.043l-.371-1.166c-.277-.85-.501-1.467-1.52-1.467-.705 0-1.625.463-1.625 1.898 0 1.12.77 1.82 1.568 1.82.677 0 1.084-.38 1.296-.572l.354 1.012c-.241.174-.734.517-1.707.517-1.346 0-2.625-.957-2.625-2.73 0-1.844 1.333-2.93 2.705-2.93 1.54 0 2.113.56 2.6 2.078l.382 1.166c.278.852.865 1.471 2.034 1.471.787 0 1.204-.176 1.204-.607 0-.338-.197-.584-.787-.723l-.787-.188c-.961-.232-1.343-.734-1.343-1.529 0-1.27 1.018-1.668 2.06-1.668 1.182 0 1.899.432 1.99 1.482l-1.156.14c-.046-.5-.347-.712-.903-.712-.51 0-.821.234-.821.631 0 .35.15.56.66.676l.74.164c.995.233 1.528.723 1.528 1.668-.001 1.17-.974 1.612-2.41 1.612Z" fill="#65CB88"/></svg>
